packages/react-icons/icons/download.svg

<svg width="24" height="24" viewBox="0 0 24 24" xmlns="http://www.w3.org/2000/svg"><path fill-rule="evenodd" clip-rule="evenodd" d="M15.7917 10.9702C16.1443 10.6198 16.1461 10.05 15.7957 9.6974C15.4454 9.34481 14.8756 9.34299 14.523 9.69334L12.8991 11.3069L12.8991 4.42588C12.8991 3.92882 12.4961 3.52588 11.9991 3.52588C11.502 3.52588 11.0991 3.92882 11.0991 4.42588L11.0991 11.3069L9.47515 9.69333C9.12255 9.34299 8.55271 9.34481 8.20236 9.6974C7.85202 10.05 7.85384 10.6198 8.20644 10.9702L11.3647 14.1083C11.7157 14.4571 12.2824 14.4571 12.6334 14.1083L15.7917 10.9702ZM4.89854 12.0463C5.39559 12.0463 5.79854 12.4493 5.79854 12.9463V14.7648V18.6768H10.7996H13.1996H18.2012V14.7648V12.9463C18.2012 12.4493 18.6041 12.0463 19.1012 12.0463C19.5982 12.0463 20.0012 12.4493 20.0012 12.9463V14.7648V19.3768C20.0012 19.9844 19.5087 20.4768 18.9012 20.4768H13.1996H10.7996H5.09854C4.49102 20.4768 3.99854 19.9844 3.99854 19.3768V14.7648V12.9463C3.99854 12.4493 4.40148 12.0463 4.89854 12.0463Z"/></svg>

<svg xmlns="http://www.w3.org/2000/svg" width="24" height="24"><path fill-rule="evenodd" d="M15.792 10.97a.9.9 0 0 0-1.269-1.277l-1.624 1.614V4.426a.9.9 0 0 0-1.8 0v6.88L9.475 9.694a.9.9 0 0 0-1.269 1.277l3.159 3.138a.9.9 0 0 0 1.268 0l3.159-3.138ZM4.899 12.046a.9.9 0 0 1 .9.9v5.731H18.2v-5.731a.9.9 0 0 1 1.8 0v6.431a1.1 1.1 0 0 1-1.1 1.1H5.1a1.1 1.1 0 0 1-1.1-1.1v-6.431a.9.9 0 0 1 .9-.9Z" clip-rule="evenodd"/></svg>
